X:1
T:Title
%%score { ( 1 3 ) | ( 2 4 ) }
L:1/8
M:3/4
K:E
V:1 treble nm="Grand Piano"
V:3 treble 
V:2 bass 
V:4 bass 
V:1
 z2 z2[Q:1/4=92] E>F | G3 E E>F | G4 G>[FA] | [GB]3 [EB] [Ec]>G |[M:2/4] B4 |[M:1/4] A>G | %6
[M:3/4] [DF]3 [DF] [CE]>[DF] | [EG]4 [GB]>[Gc] | [Gd]3 [GB] [=Gd][G^A] | B4 z2 | %10
 [^Ec]>[EG] [EG]3 [EG] | A>G A4 | [DB][DF] [DF][DF] [B,EG][B,E] | [DF]6 |[M:1/4] [B,G]>F | %15
[M:4/4] z2 z G [B,FB]2 [B,DB]2 | E3- [EB] [Ge]2 ed | ccdc BBcB | A2 B2 G2 G>E | %19
 [CE]2 [Ec]2 [DB]2 [FA]2 | [EG]6 [B,E]>[B,D] | [A,C]2 [CA]2 [EG]2 [DF]2 |[M:3/4] E6 |] %23
V:2
 z2 z2 [E,G,]>[E,A,E] | [E,B,E]3 [E,G,B,] [E,A,C]>[E,A,C] | [E,B,E]4 [E,B,E]>[E,B,] | %3
 [E,B,]3 [E,G,] [C,G,]>[E,G,E] |[M:2/4] [E,G,E]4 |[M:1/4] [E,CE]>[E,B,E] | %6
[M:3/4] [B,,A,]3 [B,,A,] [B,,A,]>[B,,A,] | [E,G,]4 [E,B,]>[E,B,] | [D,B,]3 [D,B,] [D,^A,][D,A,] | %9
 [G,G]4 z2 | [C,G,]>[C,G,] [C,G,]3 [C,C] | [F,CF]>[F,CF] [F,CF]4 | %12
 [B,,B,][B,,B,] [B,,B,][B,,B,] E,G, | B,6 |[M:1/4] z z/ A,/ |[M:4/4] G,3 B, D,2 z z/ A/ | %16
 z2 z G, [E,B,]2 [G,B,E]2 | [A,E][A,E][F,A,D][F,A,E] [G,D][G,D][E,G,C][E,G,C] | %18
 C2 [D,B,]2 [E,B,]2 [E,G,=D]>[E,G,D] | [A,,A,]2 [A,,A,]2 [B,,F,]2 [D,B,]2 | %20
 [E,B,]6 [G,,E,]>[G,,E,] | [A,,E,]2 [A,,E,]2 [B,,B,]2 [B,,A,]2 |[M:3/4] [E,G,]6 |] %23
V:3
 x6 | x6 | x6 | x6 |[M:2/4] x4 |[M:1/4] x2 |[M:3/4] x6 | x6 | x6 | x6 | x6 | x6 | x6 | x6 | %14
[M:1/4] D2 |[M:4/4] E4 z4 | [B,G]4 z4 | x8 | x8 | x8 | x8 | x8 |[M:3/4] x6 |] %23
V:4
 x6 | x6 | x6 | x6 |[M:2/4] x4 |[M:1/4] x2 |[M:3/4] x6 | x6 | x6 | x6 | x6 | x6 | x6 | x6 | %14
[M:1/4] B,,2 |[M:4/4] E,4 z2 B,,2 | E,4 z4 | x8 | F,4 z4 | x8 | x8 | x8 |[M:3/4] x6 |] %23

